X:1
T:Brandlings
T:Brandlings
T:Abraham MacIntosh
C:Abraham MacIntosh
L:1/8
Q:1/8=232
M:4/4
K:A
V:1 treble 
V:1
|: f | eA A/A/A eA cA | ea gf fe dc | fB B/B/B fB dB | fe fg ba gf | eA A/A/A eA cA | ef ga fe dc | %7
 de fg ab af | ec af e2 Af | eA cA ce cA | aA gA fA eA | fB dB df dB | bB aB gB fB | eA cA aA cA | %14
 ef ga fe dc | de fg ab af | ec ac e2 A :| %17

